X:207
T:In And Out The Harbour
R:reel
M:4/4
L:1/8
K:Edor
|: egfd eAA2 | edBd eAA2 | egfd eAA2 | BGdc BGBd ::
eaaf gafg | eAA2 eABd | eaaf ge^ce | afge d2^cd :|
